public/avatar/hat/79.svg

<svg xmlns:xlink="http://www.w3.org/1999/xlink" height="92.9" width="100.7" xmlns="http://www.w3.org/2000/svg"><use height="30.6" transform="translate(19.25 40.35)" width="39.15" xlink:href="#a"/><defs><g id="a"><path d="M13.45 10.65q.3.2.15.55-.3.95-1.05 1.2-1.2.65-2.65 0l-1.25-.35L-6 11.6l-.2.05-2.7 1.1q-2.15 1.05-2.5-1-.1-.8.7-1.1l.8-.3q.15-.85 1.05-1.1l.85-.2 1.2-.3 2.85-.4.7-.25q2.7-.8 5.5-.7 5.7-.85 10.55 1.75 1.35.7.65 1.5" fill-opacity=".302" fill-rule="evenodd" transform="translate(19.4 9.4)"/><path d="m15.2 4.9.05-.05.2.05.3 2.15.05 1.2-.35 1.1L15 10.5l-.85 1-.25.15.05-.05-1.5.55h-1.1l-1.2-.3Q7.4 11 5.1 9.15 2.8 7.35.55 6.05l-.1.05L-.7 7v-.05q-5.65 4.55-12.45 5.7l-.15.8q-1.1-3.95-.4-5.3l.75-1.4.15-.1.8-.75h2.85l.35-.25V6l8.1-5v.05L.45.35V.4L14.4 2.9l.75 1.9.05.1m-1.25 6.7.2-.1-.2.1" fill-rule="evenodd" transform="translate(19.4 9.4)"/><path d="M15.45 9.35 15 10.5l-.85 1-.2.1-1.5.55h-1.1l-1.2-.3Q7.4 11 5.1 9.15 2.8 7.35.55 6.05l-.1.05L-.7 7m0-.05q-5.65 4.55-12.45 5.7m4-6.75.35-.25m0 .35 8.1-5m0 .05L.45.35m0 .05L14.4 2.9l.75 1.9.05.1" fill="none" stroke="#000" stroke-linecap="round" stroke-linejoin="round" transform="translate(19.4 9.4)"/><path d="M.4 6.9q11.25 12.05 15.3 8.05M-7.95 8.2q-1.7 7.5-5.85 6.85" fill="none" stroke="#000" stroke-linecap="round" stroke-linejoin="round" transform="translate(19.4 9.4)"/><path d="M11.85 6.05q4.25 1 6.35 5.65M6.15 9q2.25 3.3 3 9.25M-12.4 7.45q-3.05.75-5 4.35m6.15-1.6q-1.35 2.2-2.05 7.25m7.95-8.85q-3.7 4.25-3.95 9.75" fill="none" stroke="#000" stroke-linecap="round" stroke-linejoin="round" transform="translate(19.4 9.4)"/><path d="M-8.05 20.4q-.45.65-1.25.45-2.5-.7-1.2-2.85.5-.75 1.35-.75 2.8.8 1.1 3.15" fill="#ce0000" fill-rule="evenodd" transform="translate(19.4 9.4)"/><path d="M10.2 20.7q-.45.7-1.25.45-2.5-.65-1.15-2.8.4-.7 1.2-.75h.1q2.8.8 1.1 3.1" fill="#c80000" fill-rule="evenodd" transform="translate(19.4 9.4)"/><path d="M10.1 9.75q2.2 1.2 3.35 7.75" fill="none" stroke="#000" stroke-linecap="round" stroke-linejoin="round" transform="translate(19.4 9.4)"/><path d="M14.25 18.6q-.45.7-1.25.45-2.5-.65-1.15-2.8.4-.7 1.2-.75h.1q2.8.8 1.1 3.1" fill="#c80000" fill-rule="evenodd" transform="translate(19.4 9.4)"/><path d="M-12.2 18.8q-.45.65-1.25.45-2.5-.7-1.2-2.85.5-.75 1.35-.75 2.8.8 1.1 3.15m-4.3-4.85q-.45.65-1.25.45-2.5-.7-1.2-2.85.5-.75 1.35-.75 2.8.8 1.1 3.15m35.6-1.2q-.45.65-1.25.45-2.5-.7-1.2-2.85.5-.75 1.35-.75 2.8.8 1.1 3.15" fill="#ce0000" fill-rule="evenodd" transform="translate(19.4 9.4)"/><path d="m-13.25 7.5.2-1.95q.1-1.1 1.65-4.8 1.35-3.9 3.35-5.9Q-4.9-8.75.3-8.9q5.05-.25 8.95 3.75 2.3 3.45 3.35 6.4l1.1 3.35-.1 1.45-.2 1.5-1.7-.2-4.6-.55-4.75-.25H-1.6l-4.3.2-4.95.45-2.4.3" fill="#b05" fill-rule="evenodd" transform="translate(19.4 9.4)"/><path d="m-13.25 7.5.2-1.95q.1-1.1 1.65-4.8 1.35-3.9 3.35-5.9Q-4.9-8.75.3-8.9q5.05-.25 8.95 3.75 2.3 3.45 3.35 6.4l1.1 3.35-.1 1.45-.2 1.5" fill="none" stroke="#6b0146" stroke-linecap="round" stroke-linejoin="round" transform="translate(19.4 9.4)"/><path d="M-15 5.2q.25-1.55.95-2l1.55-1.05 1.3-.25 1.9-.3 4.2-.45 3.7-.2h3.45l4.35.25 4.2.5 1.55.25 2.05.35q.85.15 1.8 2.1.7 1.5.35 2.95l.1-.65Q9.45 3.95 2 4l-4.65-.15q-5.95.1-11.85 1.25l-.5.1" fill="#b05" fill-rule="evenodd" transform="translate(19.4 9.4)"/><path d="m16.35 7.35-.2.65-.1.2-.05.05Q15.1 10 13.2 9.3l-2.9-1q-1.75-.6-4-.9l-3.4-.3h-4.55l-3.9.35-3.25.6-1.85.35-2.55.5q-1.45-.35-1.8-1.55l-.1-1.25v-.3l.1-.6.5-.1q5.9-1.15 11.85-1.25L2 4q7.45-.05 14.45 2.7l-.1.65" fill="#9c0043" fill-rule="evenodd" transform="translate(19.4 9.4)"/><path d="M10.6 1.7q1.3 2.6.8 4.25L10.3 8.3M6.45 1.2q.6 2.55.25 4.85L6.35 7.4M2.05.95q.95 2.4.4 4.9l-.2 1.25M-9.3 1.6q-1.75 2.65-1.6 4.4l.2 2.4M-1.4.95q-.55 2.4-.4 4.6l.15.8q-.2.45 0 .75m-3.9.35q-.1-2.45.2-4.9l.25-1.4" fill="none" stroke="#6b0146" stroke-linecap="round" stroke-linejoin="round" transform="translate(19.4 9.4)"/><path d="M14.05 2.2q2.25.8 2.65 3.05.55 3.2-2.65 4.25l-.85-.2-2.9-1q-1.75-.6-3.95-.9L2.9 7.1h-4.55l-3.9.35-3.25.6-1.9.35-1.3.25-1.2.15q-2.3-1.2-1.95-3.65.4-2.45 2.7-3l.45-.1.8-.15 1.9-.3 4.2-.45 3.7-.2h3.45l4.4.25 4.15.5 1.55.25 1.9.25Z" fill="none" stroke="#6b0146" stroke-linecap="round" stroke-linejoin="round" transform="translate(19.4 9.4)"/></g></defs></svg>

<?xml version="1.0" encoding="UTF-8" standalone="no"?>
<svg xmlns:xlink="http://www.w3.org/1999/xlink" height="92.9px" width="100.7px" xmlns="http://www.w3.org/2000/svg">
  <g transform="matrix(1.0, 0.0, 0.0, 1.0, 38.65, 49.75)">
    <use height="30.6" transform="matrix(1.0, 0.0, 0.0, 1.0, -19.4, -9.4)" width="39.15" xlink:href="#shape0"/>
  </g>
  <defs>
    <g id="shape0" transform="matrix(1.0, 0.0, 0.0, 1.0, 19.4, 9.4)">
      <path d="M13.45 10.65 Q13.75 10.85 13.6 11.2 13.3 12.15 12.55 12.4 11.35 13.05 9.9 12.4 L8.65 12.05 -6.0 11.6 -6.2 11.65 -8.9 12.75 Q-11.05 13.8 -11.4 11.75 -11.5 10.95 -10.7 10.65 L-9.9 10.35 Q-9.75 9.5 -8.85 9.25 L-8.0 9.05 -6.8 8.75 -3.95 8.35 -3.25 8.1 Q-0.55 7.3 2.25 7.4 7.95 6.55 12.8 9.15 14.15 9.85 13.45 10.65" fill="#000000" fill-opacity="0.3019608" fill-rule="evenodd" stroke="none"/>
      <path d="M15.2 4.9 L15.25 4.85 15.45 4.9 15.75 7.05 15.8 8.25 15.45 9.35 15.0 10.5 14.15 11.5 13.9 11.65 13.95 11.6 12.45 12.15 11.35 12.15 10.15 11.85 Q7.4 11.0 5.1 9.15 2.8 7.35 0.55 6.05 L0.45 6.1 -0.7 7.0 -0.7 6.95 Q-6.35 11.5 -13.15 12.65 L-13.3 13.45 Q-14.4 9.5 -13.7 8.15 L-12.95 6.75 -12.8 6.65 -12.0 5.9 -9.15 5.9 -8.8 5.65 -8.8 6.0 -0.7 1.0 -0.7 1.05 0.45 0.35 0.45 0.4 14.4 2.9 15.15 4.8 15.2 4.9 M13.95 11.6 L14.15 11.5 13.95 11.6" fill="#000000" fill-rule="evenodd" stroke="none"/>
      <path d="M15.45 9.35 L15.0 10.5 14.15 11.5 13.95 11.6 12.45 12.15 11.35 12.15 10.15 11.85 Q7.4 11.0 5.1 9.15 2.8 7.35 0.55 6.05 L0.45 6.1 -0.7 7.0 M-0.7 6.95 Q-6.35 11.5 -13.15 12.65 M-9.15 5.9 L-8.8 5.65 M-8.8 6.0 L-0.7 1.0 M-0.7 1.05 L0.45 0.35 M0.45 0.4 L14.4 2.9 15.15 4.8 15.2 4.9" fill="none" stroke="#000000" stroke-linecap="round" stroke-linejoin="round" stroke-width="1.0"/>
      <path d="M0.4 6.9 Q11.65 18.95 15.7 14.95 M-7.95 8.2 Q-9.65 15.7 -13.8 15.05" fill="none" stroke="#000000" stroke-linecap="round" stroke-linejoin="round" stroke-width="1.0"/>
      <path d="M11.85 6.05 Q16.1 7.05 18.2 11.7 M6.15 9.0 Q8.4 12.3 9.15 18.25 M-12.4 7.45 Q-15.45 8.2 -17.4 11.8 M-11.25 10.2 Q-12.6 12.4 -13.3 17.45" fill="none" stroke="#000000" stroke-linecap="round" stroke-linejoin="round" stroke-width="1.0"/>
      <path d="M-5.35 8.6 Q-9.05 12.85 -9.3 18.35" fill="none" stroke="#000000" stroke-linecap="round" stroke-linejoin="round" stroke-width="1.0"/>
      <path d="M-8.05 20.4 Q-8.5 21.05 -9.3 20.85 -11.8 20.15 -10.5 18.0 -10.0 17.25 -9.15 17.25 -6.35 18.05 -8.05 20.4" fill="#ce0000" fill-rule="evenodd" stroke="none"/>
      <path d="M10.2 20.7 Q9.75 21.4 8.95 21.15 6.45 20.5 7.8 18.35 8.2 17.65 9.0 17.6 L9.1 17.6 Q11.9 18.4 10.2 20.7" fill="#c80000" fill-rule="evenodd" stroke="none"/>
      <path d="M10.1 9.75 Q12.3 10.95 13.45 17.5" fill="none" stroke="#000000" stroke-linecap="round" stroke-linejoin="round" stroke-width="1.0"/>
      <path d="M14.25 18.6 Q13.8 19.3 13.0 19.05 10.5 18.4 11.85 16.25 12.25 15.55 13.05 15.5 L13.15 15.5 Q15.95 16.3 14.25 18.6" fill="#c80000" fill-rule="evenodd" stroke="none"/>
      <path d="M-12.2 18.8 Q-12.65 19.45 -13.45 19.25 -15.95 18.55 -14.65 16.4 -14.15 15.65 -13.3 15.65 -10.5 16.45 -12.2 18.8" fill="#ce0000" fill-rule="evenodd" stroke="none"/>
      <path d="M-16.5 13.95 Q-16.95 14.6 -17.75 14.4 -20.25 13.7 -18.95 11.55 -18.45 10.8 -17.6 10.8 -14.8 11.6 -16.5 13.95" fill="#ce0000" fill-rule="evenodd" stroke="none"/>
      <path d="M19.1 12.75 Q18.65 13.4 17.85 13.2 15.35 12.5 16.65 10.35 17.15 9.6 18.0 9.6 20.8 10.4 19.1 12.75" fill="#ce0000" fill-rule="evenodd" stroke="none"/>
      <path d="M-13.25 7.5 L-13.05 5.55 Q-12.95 4.45 -11.4 0.75 -10.05 -3.15 -8.05 -5.15 -4.9 -8.75 0.3 -8.9 5.35 -9.15 9.25 -5.15 11.55 -1.7 12.6 1.25 L13.7 4.6 13.6 6.05 13.4 7.55 11.7 7.35 7.1 6.8 2.35 6.55 -1.6 6.55 -5.9 6.75 -10.85 7.2 -13.25 7.5" fill="#bb0055" fill-rule="evenodd" stroke="none"/>
      <path d="M-13.25 7.5 L-13.05 5.55 Q-12.95 4.45 -11.4 0.75 -10.05 -3.15 -8.05 -5.15 -4.9 -8.75 0.3 -8.9 5.35 -9.15 9.25 -5.15 11.55 -1.7 12.6 1.25 L13.7 4.6 13.6 6.05 13.4 7.55" fill="none" stroke="#6b0146" stroke-linecap="round" stroke-linejoin="round" stroke-width="1.0"/>
      <path d="M-15.0 5.2 Q-14.75 3.65 -14.05 3.2 L-12.5 2.15 -11.2 1.9 -9.3 1.6 -5.1 1.15 -1.4 0.95 2.05 0.95 6.4 1.2 10.6 1.7 12.15 1.95 14.2 2.3 Q15.05 2.45 16.0 4.4 16.7 5.9 16.35 7.35 L16.45 6.7 Q9.45 3.95 2.0 4.0 L-2.65 3.85 Q-8.6 3.95 -14.5 5.1 L-15.0 5.2" fill="#bb0055" fill-rule="evenodd" stroke="none"/>
      <path d="M16.35 7.35 L16.15 8.0 16.05 8.2 16.0 8.25 Q15.1 10.0 13.2 9.3 L10.3 8.3 Q8.55 7.7 6.3 7.4 L2.9 7.1 2.25 7.1 -1.65 7.1 -5.55 7.45 -8.8 8.05 -10.65 8.4 -13.2 8.9 Q-14.65 8.55 -15.0 7.35 L-15.1 6.1 -15.1 5.8 -15.0 5.2 -14.5 5.1 Q-8.6 3.95 -2.65 3.85 L2.0 4.0 Q9.45 3.95 16.45 6.7 L16.35 7.35" fill="#9c0043" fill-rule="evenodd" stroke="none"/>
      <path d="M10.6 1.7 Q11.9 4.3 11.4 5.95 L10.3 8.3 M6.45 1.2 Q7.05 3.75 6.7 6.05 L6.35 7.4 M2.05 0.95 Q3.0 3.35 2.45 5.85 L2.25 7.1 M-9.3 1.6 Q-11.05 4.25 -10.9 6.0 L-10.7 8.4 M-1.4 0.95 Q-1.95 3.35 -1.8 5.55 L-1.65 6.35 Q-1.85 6.8 -1.65 7.1 M-5.55 7.45 Q-5.65 5.0 -5.35 2.55 L-5.1 1.15" fill="none" stroke="#6b0146" stroke-linecap="round" stroke-linejoin="round" stroke-width="1.0"/>
      <path d="M14.05 2.2 Q16.3 3.0 16.7 5.25 17.25 8.45 14.05 9.5 L13.2 9.3 10.3 8.3 Q8.55 7.7 6.35 7.4 L2.9 7.1 2.25 7.1 -1.65 7.1 -5.55 7.45 -8.8 8.05 -10.7 8.4 -12.0 8.65 -13.2 8.8 Q-15.5 7.6 -15.15 5.15 -14.75 2.7 -12.45 2.15 L-12.0 2.05 -11.2 1.9 -9.3 1.6 -5.1 1.15 -1.4 0.95 2.05 0.95 6.45 1.2 10.6 1.7 12.15 1.95 14.05 2.2 Z" fill="none" stroke="#6b0146" stroke-linecap="round" stroke-linejoin="round" stroke-width="1.0"/>
    </g>
  </defs>
</svg>
